X:226
T: Teatotaller
D:Frankie Gavin
S:Brcher
M: 4/4
L:1/8
R:reel
K: G
(3DEF | G2 GF GABc | (3ddd ge dBAc | BEED EFGA |1 BGAF GFED :||2 BGAF G2 GA||
Beef (3eee ef | geaf gfed | Add^c ~d2 de | fgaf gfed | 
Beef (3eee ef | geaf gfed | BEED EFGA |1 BGAF ~G2 GA :||2 BGAF GFED ||
